X: 12
T: A qui vens tu tes coquilles
N: Derived from Bus3004-A_qui_vens_tu_tes_coquilles.krn
C: Antoine Busnoys
%%abc-version 2.0
%%abcx-abcm2ps-target-version 5.9.1 (29 Sep 2008)
%%abc-creator hum2abc beta
%%abcx-conversion-date 2019/02/16 20:26:06
%%abc-edited-by Jesse Rodin
%%abc-edited-by Chris Gage 02-10-2015
%%abcx-initial-encoding-date 2015/10/29/
%%humdrum-veritas 326654379
%%humdrum-veritas-data 2731712222
%%linebreak <none>
%%barnumbers 0
L: 1/4
M: 2/1
Q: 1/2=120
V: 1 clef=treble
V: 2 clef=treble
V: 3 clef=treble-8
K: F
[V:1] z8 | 
[V:2] A,6=B,2 | 
[V:3] D8 | 
[V:1] z8 | 
[V:2] C4C4 | 
[V:3] E4E4 | 
[V:1] A6=B2 | 
[V:2] D4D4 | 
[V:3] D4D4 | 
[V:1] c4c4 | 
[V:2] E4F4- | 
[V:3] A4A4 | 
[V:1] d4d4 | 
[V:2] F2E2F4 | 
[V:3] B6A2 | 
[V:1] e4f4- | 
[V:2] G4A4 | 
[V:3] G3FF4 | 
[V:1] f2e2d3A | 
[V:2] D8 | 
[V:3] z4B4 | 
[V:1] d2^c4=B2 | 
[V:2] E8 | 
[V:3] A4A4 | 
[V:1] d6c=B | 
[V:2] D8 | 
[V:3] B6AG | 
[V:1] A8 | 
[V:2] z4F4 | 
[V:3] F4F4 | 
[V:1] z8 | 
[V:2] E4E4 | 
[V:3] G6FE | 
[V:1] z4f4 | 
[V:2] F6ED | 
[V:3] D8 | 
[V:1] e4e4 | 
[V:2] C4C4 | 
[V:3] z8 | 
[V:1] f6ed | 
[V:2] D6C=B, | 
[V:3] D6E2 | 
[V:1] c4d4 | 
[V:2] A,4=B,4 | 
[V:3] F4D4 | 
[V:1] e4c4- | 
[V:2] C4A,4 | 
[V:3] C4F4- | 
[V:1] c4f4- | 
[V:2] A4F4 | 
[V:3] F2G2A4 | 
[V:1] f2e2e2d2 | 
[V:2] G6F2 | 
[V:3] B4c4 | 
[V:1] f4e2c2 | 
[V:2] F3EC2F2- | 
[V:3] F4A4 | 
[V:1] d2cBA2B2- | 
[V:2] F2E2F2G2- | 
[V:3] G4F2E2- | 
[V:1] BAGFG4 | 
[V:2] GFEDE4 | 
[V:3] EFCFc4 | 
[V:1] F8- | 
[V:2] F4z4 | 
[V:3] F4B4 | 
[V:1] F8 | 
[V:2] A4c4 | 
[V:3] A2F4A2 | 
[V:1] z4A4 | 
[V:2] B4A4- | 
[V:3] G4F4 | 
[V:1] c4B4 | 
[V:2] (3A2G2F2G3F | 
[V:3] z4e4 | 
[V:1] (3A8G2F2 | 
[V:2] D8 | 
[V:3] f6d2 | 
[V:1] G3FD4- | 
[V:2] C4D4 | 
[V:3] e4f4 | 
[V:1] D4C4 | 
[V:2] F4E4- | 
[V:3] d4A4 | 
[V:1] D4F4 | 
[V:2] E2D2D4- | 
[V:3] B3AF4 | 
[V:1] E8 | 
[V:2] D4^C4 | 
[V:3] G4A4 | 
[V:1] D8 | 
[V:2] D8- | 
[V:3] z4D4- | 
[V:1] z4A4 | 
[V:2] D8 | 
[V:3] D2E2F4 | 
[V:1] =B4c4 | 
[V:2] z4A4 | 
[V:3] G4A4 | 
[V:1] d4e4 | 
[V:2] =B4c4 | 
[V:3] z4A4 | 
[V:1] d4f4- | 
[V:2] d4A4- | 
[V:3] B4d4 | 
[V:1] f2e2e4- | 
[V:2] A4G4 | 
[V:3] c8 | 
[V:1] e2d2d3c | 
[V:2] F8 | 
[V:3] d8 | 
[V:1] e4c2d2- | 
[V:2] E6D2 | 
[V:3] A6B2- | 
[V:1] d2=B2c2A2- | 
[V:2] F2G2A4 | 
[V:3] B4F4- | 
[V:1] A2G2=B2c2 | 
[V:2] F2G4E2 | 
[V:3] F2E6 | 
[V:1] d4f2e2- | 
[V:2] F2D4C2 | 
[V:3] D6A2- | 
[V:1] e2dce2d2- | 
[V:2] E2F2G4 | 
[V:3] A4G4- | 
[V:1] d2c2A2=B2 | 
[V:2] B2A4GF | 
[V:3] G2A3GE2 | 
[V:1] A2d4^c2 | 
[V:2] A2D2E4 | 
[V:3] F2B2A4 | 
[V:1] d8 |]  
[V:2] D8 |]  
[V:3] D8 |]  



